static/img/kroki/5b78493405780f32f6a5f2d37a8c5b79.svg

<?xml version="1.0" encoding="us-ascii" standalone="no"?><svg xmlns="http://www.w3.org/2000/svg" xmlns:xlink="http://www.w3.org/1999/xlink" contentStyleType="text/css" height="714px" preserveAspectRatio="none" style="width:425px;height:714px;" version="1.1" viewBox="0 0 425 714" width="425px" zoomAndPan="magnify"><defs/><g><!--class digitalocean_resource--><g id="elem_digitalocean_resource"><rect codeLine="22" fill="#3D176E" height="74.0859" id="digitalocean_resource" rx="2.5" ry="2.5" style="stroke:#000D19;stroke-width:0.5;" width="223" x="7" y="438.76"/><ellipse cx="22" cy="458.6545" fill="#ADD1B2" rx="11" ry="11" style="stroke:#181818;stroke-width:1.0;"/><path d="M24.9688,464.2952 Q24.3906,464.592 23.75,464.7327 Q23.1094,464.8889 22.4063,464.8889 Q19.9063,464.8889 18.5781,463.2483 Q17.2656,461.592 17.2656,458.467 Q17.2656,455.342 18.5781,453.6858 Q19.9063,452.0295 22.4063,452.0295 Q23.1094,452.0295 23.75,452.1858 Q24.4063,452.342 24.9688,452.6389 L24.9688,455.3577 Q24.3438,454.7795 23.75,454.5139 Q23.1563,454.2327 22.5313,454.2327 Q21.1875,454.2327 20.5,455.3108 Q19.8125,456.3733 19.8125,458.467 Q19.8125,460.5608 20.5,461.6389 Q21.1875,462.7014 22.5313,462.7014 Q23.1563,462.7014 23.75,462.4358 Q24.3438,462.1545 24.9688,461.5764 L24.9688,464.2952 Z " fill="#000000"/><text fill="#D9B8FF" font-family="Helvetica" font-size="17" lengthAdjust="spacing" textLength="181" x="41" y="464.5398">digitalocean_resource</text><line style="stroke:#000D19;stroke-width:0.5;" x1="8" x2="229" y1="478.5491" y2="478.5491"/><text fill="#D9B8FF" font-family="sans-serif" font-size="14" font-weight="bold" lengthAdjust="spacing" textLength="27" x="18" y="500.5442">urn</text><text fill="#D9B8FF" font-family="sans-serif" font-size="14" lengthAdjust="spacing" textLength="48" x="45" y="500.5442">: string</text></g><!--class digitalocean_ssh_key--><g id="elem_digitalocean_ssh_key"><rect codeLine="25" fill="#3D176E" height="74.0859" id="digitalocean_ssh_key" rx="2.5" ry="2.5" style="stroke:#000D19;stroke-width:0.5;" width="218" x="120.5" y="633.84"/><ellipse cx="135.5" cy="653.7345" fill="#ADD1B2" rx="11" ry="11" style="stroke:#181818;stroke-width:1.0;"/><path d="M138.4688,659.3752 Q137.8906,659.672 137.25,659.8127 Q136.6094,659.9689 135.9063,659.9689 Q133.4063,659.9689 132.0781,658.3283 Q130.7656,656.672 130.7656,653.547 Q130.7656,650.422 132.0781,648.7658 Q133.4063,647.1095 135.9063,647.1095 Q136.6094,647.1095 137.25,647.2658 Q137.9063,647.422 138.4688,647.7189 L138.4688,650.4377 Q137.8438,649.8595 137.25,649.5939 Q136.6563,649.3127 136.0313,649.3127 Q134.6875,649.3127 134,650.3908 Q133.3125,651.4533 133.3125,653.547 Q133.3125,655.6408 134,656.7189 Q134.6875,657.7814 136.0313,657.7814 Q136.6563,657.7814 137.25,657.5158 Q137.8438,657.2345 138.4688,656.6564 L138.4688,659.3752 Z " fill="#000000"/><text fill="#D9B8FF" font-family="Helvetica" font-size="17" lengthAdjust="spacing" textLength="176" x="154.5" y="659.6198">digitalocean_ssh_key</text><line style="stroke:#000D19;stroke-width:0.5;" x1="121.5" x2="337.5" y1="673.6291" y2="673.6291"/><text fill="#D9B8FF" font-family="sans-serif" font-size="14" font-weight="bold" lengthAdjust="spacing" textLength="82" x="131.5" y="695.6242">public_key</text><text fill="#D9B8FF" font-family="sans-serif" font-size="14" lengthAdjust="spacing" textLength="48" x="213.5" y="695.6242">: string</text></g><!--class keypair--><g id="elem_keypair"><rect codeLine="28" fill="#3D176E" height="74.0859" id="keypair" rx="2.5" ry="2.5" style="stroke:#000D19;stroke-width:0.5;" width="154" x="264.5" y="438.76"/><ellipse cx="302" cy="458.6545" fill="#ADD1B2" rx="11" ry="11" style="stroke:#181818;stroke-width:1.0;"/><path d="M304.9688,464.2952 Q304.3906,464.592 303.75,464.7327 Q303.1094,464.8889 302.4063,464.8889 Q299.9063,464.8889 298.5781,463.2483 Q297.2656,461.592 297.2656,458.467 Q297.2656,455.342 298.5781,453.6858 Q299.9063,452.0295 302.4063,452.0295 Q303.1094,452.0295 303.75,452.1858 Q304.4063,452.342 304.9688,452.6389 L304.9688,455.3577 Q304.3438,454.7795 303.75,454.5139 Q303.1563,454.2327 302.5313,454.2327 Q301.1875,454.2327 300.5,455.3108 Q299.8125,456.3733 299.8125,458.467 Q299.8125,460.5608 300.5,461.6389 Q301.1875,462.7014 302.5313,462.7014 Q303.1563,462.7014 303.75,462.4358 Q304.3438,462.1545 304.9688,461.5764 L304.9688,464.2952 Z " fill="#000000"/><text fill="#D9B8FF" font-family="Helvetica" font-size="17" lengthAdjust="spacing" textLength="62" x="326" y="464.5398">keypair</text><line style="stroke:#000D19;stroke-width:0.5;" x1="265.5" x2="417.5" y1="478.5491" y2="478.5491"/><text fill="#D9B8FF" font-family="sans-serif" font-size="14" font-weight="bold" lengthAdjust="spacing" textLength="84" x="275.5" y="500.5442">fingerprint</text><text fill="#D9B8FF" font-family="sans-serif" font-size="14" lengthAdjust="spacing" textLength="48" x="359.5" y="500.5442">: string</text></g><!--class resource--><g id="elem_resource"><rect codeLine="31" fill="#3D176E" height="310.7578" id="resource" rx="2.5" ry="2.5" style="stroke:#000D19;stroke-width:0.5;" width="227" x="116" y="7"/><ellipse cx="184.75" cy="26.8945" fill="#ADD1B2" rx="11" ry="11" style="stroke:#181818;stroke-width:1.0;"/><path d="M187.7188,32.5352 Q187.1406,32.832 186.5,32.9727 Q185.8594,33.1289 185.1563,33.1289 Q182.6563,33.1289 181.3281,31.4883 Q180.0156,29.832 180.0156,26.707 Q180.0156,23.582 181.3281,21.9258 Q182.6563,20.2695 185.1563,20.2695 Q185.8594,20.2695 186.5,20.4258 Q187.1563,20.582 187.7188,20.8789 L187.7188,23.5977 Q187.0938,23.0195 186.5,22.7539 Q185.9063,22.4727 185.2813,22.4727 Q183.9375,22.4727 183.25,23.5508 Q182.5625,24.6133 182.5625,26.707 Q182.5625,28.8008 183.25,29.8789 Q183.9375,30.9414 185.2813,30.9414 Q185.9063,30.9414 186.5,30.6758 Q187.0938,30.3945 187.7188,29.8164 L187.7188,32.5352 Z " fill="#000000"/><text fill="#D9B8FF" font-family="Helvetica" font-size="17" lengthAdjust="spacing" textLength="71" x="210.25" y="32.7798">resource</text><line style="stroke:#000D19;stroke-width:0.5;" x1="117" x2="342" y1="46.7891" y2="46.7891"/><text fill="#D9B8FF" font-family="sans-serif" font-size="14" font-weight="bold" lengthAdjust="spacing" textLength="29" x="127" y="68.7842">age</text><text fill="#D9B8FF" font-family="sans-serif" font-size="14" lengthAdjust="spacing" textLength="66" x="156" y="68.7842">: duration</text><text fill="#D9B8FF" font-family="sans-serif" font-size="14" font-weight="bold" lengthAdjust="spacing" textLength="43" x="127" y="95.0811">atime</text><text fill="#D9B8FF" font-family="sans-serif" font-size="14" lengthAdjust="spacing" textLength="70" x="170" y="95.0811">: datetime</text><text fill="#D9B8FF" font-family="sans-serif" font-size="14" font-weight="bold" lengthAdjust="spacing" textLength="43" x="127" y="121.3779">ctime</text><text fill="#D9B8FF" font-family="sans-serif" font-size="14" lengthAdjust="spacing" textLength="70" x="170" y="121.3779">: datetime</text><text fill="#D9B8FF" font-family="sans-serif" font-size="14" font-weight="bold" lengthAdjust="spacing" textLength="14" x="127" y="147.6748">id</text><text fill="#D9B8FF" font-family="sans-serif" font-size="14" lengthAdjust="spacing" textLength="48" x="141" y="147.6748">: string</text><text fill="#D9B8FF" font-family="sans-serif" font-size="14" font-weight="bold" lengthAdjust="spacing" textLength="33" x="127" y="173.9717">kind</text><text fill="#D9B8FF" font-family="sans-serif" font-size="14" lengthAdjust="spacing" textLength="48" x="160" y="173.9717">: string</text><text fill="#D9B8FF" font-family="sans-serif" font-size="14" font-weight="bold" lengthAdjust="spacing" textLength="90" x="127" y="200.2686">last_access</text><text fill="#D9B8FF" font-family="sans-serif" font-size="14" lengthAdjust="spacing" textLength="66" x="217" y="200.2686">: duration</text><text fill="#D9B8FF" font-family="sans-serif" font-size="14" font-weight="bold" lengthAdjust="spacing" textLength="90" x="127" y="226.5654">last_update</text><text fill="#D9B8FF" font-family="sans-serif" font-size="14" lengthAdjust="spacing" textLength="66" x="217" y="226.5654">: duration</text><text fill="#D9B8FF" font-family="sans-serif" font-size="14" font-weight="bold" lengthAdjust="spacing" textLength="48" x="127" y="252.8623">mtime</text><text fill="#D9B8FF" font-family="sans-serif" font-size="14" lengthAdjust="spacing" textLength="70" x="175" y="252.8623">: datetime</text><text fill="#D9B8FF" font-family="sans-serif" font-size="14" font-weight="bold" lengthAdjust="spacing" textLength="43" x="127" y="279.1592">name</text><text fill="#D9B8FF" font-family="sans-serif" font-size="14" lengthAdjust="spacing" textLength="48" x="170" y="279.1592">: string</text><text fill="#D9B8FF" font-family="sans-serif" font-size="14" font-weight="bold" lengthAdjust="spacing" textLength="34" x="127" y="305.4561">tags</text><text fill="#D9B8FF" font-family="sans-serif" font-size="14" lengthAdjust="spacing" textLength="171" x="161" y="305.4561">: dictionary[string, string]</text></g><!--reverse link resource to digitalocean_resource--><g id="link_resource_digitalocean_resource"><path codeLine="43" d="M167.29,337.93 C153.68,376.11 140.61,412.76 131.43,438.51 " fill="none" id="resource-backto-digitalocean_resource" style="stroke:#FFAF37;stroke-width:2.0;"/><polygon fill="none" points="161.02,335.67,174.33,319.18,174.2,340.37,161.02,335.67" style="stroke:#FFAF37;stroke-width:2.0;"/></g><!--reverse link digitalocean_resource to digitalocean_ssh_key--><g id="link_digitalocean_resource_digitalocean_ssh_key"><path codeLine="44" d="M149.82,531.28 C168.6,563.94 191.96,604.59 208.53,633.4 " fill="none" id="digitalocean_resource-backto-digitalocean_ssh_key" style="stroke:#FFAF37;stroke-width:2.0;"/><polygon fill="none" points="143.28,534.95,139.38,514.12,155.41,527.97,143.28,534.95" style="stroke:#FFAF37;stroke-width:2.0;"/></g><!--reverse link keypair to digitalocean_ssh_key--><g id="link_keypair_digitalocean_ssh_key"><path codeLine="45" d="M309.9,531.28 C290.95,563.94 267.37,604.59 250.66,633.4 " fill="none" id="keypair-backto-digitalocean_ssh_key" style="stroke:#FFAF37;stroke-width:2.0;"/><polygon fill="none" points="304.34,527.91,320.43,514.12,316.45,534.93,304.34,527.91" style="stroke:#FFAF37;stroke-width:2.0;"/></g><!--reverse link resource to keypair--><g id="link_resource_keypair"><path codeLine="46" d="M292.27,337.93 C306.01,376.11 319.19,412.76 328.45,438.51 " fill="none" id="resource-backto-keypair" style="stroke:#FFAF37;stroke-width:2.0;"/><polygon fill="none" points="285.35,340.37,285.17,319.18,298.53,335.63,285.35,340.37" style="stroke:#FFAF37;stroke-width:2.0;"/></g><!--SRC=[XPDFJyCm3CNl_HIHk5LCsa0mXhZ090GNX80RGfENk5sqDgaS5pJ-V7UITPkwDepR-jxFzhEZBRH2WMN5Ar5YEKToYLjgKm51AQw9xCVK5fR4KPP1TZhkchVMyB_00vGexh1uHzOIkiJBGikbGUV4ISkw0RdCoTP6DUsPm3XleU4MDIt0kMjcqlEQiHL6JUONMTObkqsFJjLeV8uzp992sY33uL2D9btatr47zzuHp_eJnQXzj0VBs8lP6x6c3gOCH2jaRz6j_sV6Hr1AcroSjRId9XCPf3tzUG7AVWGwWyArnpX6Gikh2gUzhN1oeR9n5Bx_2vRXSaBfN3CKLYAO6Q6pDKaKNqcQrcJIzD9t8fyc-OdnpYrcIrojyQgU5rg6pqYLLolGj0OpRo1LtkS8kHS1SWo8gWbOMnCKrcMZ0MFuxJKPqRHgzKvJVvTzmS_Y6KZf_okT2MkdhaAlZbD6vXXef5rZXhpfg6Ke0rgzDjxnXddpg-wMlFeU30RnDqZYBnEfsBn2iZto0QJJPbFn2m00]--></g></svg>

<svg xmlns="http://www.w3.org/2000/svg" width="425" height="714" preserveAspectRatio="none" style="width:425px;height:714px"><rect width="223" height="74.086" x="7" y="438.76" fill="#3D176E" rx="2.5" ry="2.5" style="stroke:#000d19;stroke-width:.5"/><circle cx="22" cy="458.654" r="11" fill="#ADD1B2" style="stroke:#181818;stroke-width:1"/><path d="M24.969 464.295q-.578.297-1.219.438-.64.156-1.344.156-2.5 0-3.828-1.64-1.312-1.657-1.312-4.782t1.312-4.781q1.328-1.656 3.828-1.656.703 0 1.344.156.656.156 1.219.453v2.719q-.625-.579-1.219-.844-.594-.281-1.219-.281-1.343 0-2.031 1.078-.688 1.062-.688 3.156 0 2.094.688 3.172.688 1.062 2.031 1.062.625 0 1.219-.265.594-.281 1.219-.86v2.72Z"/><text x="41" y="464.54" fill="#D9B8FF" font-family="Helvetica" font-size="17" textLength="181">digitalocean_resource</text><path d="M8 478.549h221" style="stroke:#000d19;stroke-width:.5"/><text x="18" y="500.544" fill="#D9B8FF" font-family="sans-serif" font-size="14" font-weight="bold" textLength="27">urn</text><text x="45" y="500.544" fill="#D9B8FF" font-family="sans-serif" font-size="14" textLength="48">: string</text><rect width="218" height="74.086" x="120.5" y="633.84" fill="#3D176E" rx="2.5" ry="2.5" style="stroke:#000d19;stroke-width:.5"/><circle cx="135.5" cy="653.735" r="11" fill="#ADD1B2" style="stroke:#181818;stroke-width:1"/><path d="M138.469 659.375q-.578.297-1.219.438-.64.156-1.344.156-2.5 0-3.828-1.64-1.312-1.657-1.312-4.782t1.312-4.781q1.328-1.656 3.828-1.656.703 0 1.344.156.656.156 1.219.453v2.719q-.625-.578-1.219-.844-.594-.281-1.219-.281-1.344 0-2.031 1.078-.688 1.062-.688 3.156 0 2.094.688 3.172.688 1.062 2.031 1.062.625 0 1.219-.265.594-.281 1.219-.86v2.72Z"/><text x="154.5" y="659.62" fill="#D9B8FF" font-family="Helvetica" font-size="17" textLength="176">digitalocean_ssh_key</text><path d="M121.5 673.629h216" style="stroke:#000d19;stroke-width:.5"/><text x="131.5" y="695.624" fill="#D9B8FF" font-family="sans-serif" font-size="14" font-weight="bold" textLength="82">public_key</text><text x="213.5" y="695.624" fill="#D9B8FF" font-family="sans-serif" font-size="14" textLength="48">: string</text><rect width="154" height="74.086" x="264.5" y="438.76" fill="#3D176E" rx="2.5" ry="2.5" style="stroke:#000d19;stroke-width:.5"/><circle cx="302" cy="458.654" r="11" fill="#ADD1B2" style="stroke:#181818;stroke-width:1"/><path d="M304.969 464.295q-.578.297-1.219.438-.64.156-1.344.156-2.5 0-3.828-1.64-1.312-1.657-1.312-4.782t1.312-4.781q1.328-1.656 3.828-1.656.703 0 1.344.156.656.156 1.219.453v2.719q-.625-.579-1.219-.844-.594-.281-1.219-.281-1.344 0-2.031 1.078-.688 1.062-.688 3.156 0 2.094.688 3.172.688 1.062 2.031 1.062.625 0 1.219-.265.594-.281 1.219-.86v2.72Z"/><text x="326" y="464.54" fill="#D9B8FF" font-family="Helvetica" font-size="17" textLength="62">keypair</text><path d="M265.5 478.549h152" style="stroke:#000d19;stroke-width:.5"/><text x="275.5" y="500.544" fill="#D9B8FF" font-family="sans-serif" font-size="14" font-weight="bold" textLength="84">fingerprint</text><text x="359.5" y="500.544" fill="#D9B8FF" font-family="sans-serif" font-size="14" textLength="48">: string</text><rect width="227" height="310.758" x="116" y="7" fill="#3D176E" rx="2.5" ry="2.5" style="stroke:#000d19;stroke-width:.5"/><circle cx="184.75" cy="26.895" r="11" fill="#ADD1B2" style="stroke:#181818;stroke-width:1"/><path d="M187.719 32.535q-.578.297-1.219.438-.64.156-1.344.156-2.5 0-3.828-1.64-1.312-1.657-1.312-4.782t1.312-4.781q1.328-1.656 3.828-1.656.703 0 1.344.156.656.156 1.219.453v2.719q-.625-.578-1.219-.844-.594-.281-1.219-.281-1.344 0-2.031 1.078-.688 1.062-.688 3.156 0 2.094.688 3.172.688 1.062 2.031 1.062.625 0 1.219-.265.594-.281 1.219-.86v2.72Z"/><text x="210.25" y="32.78" fill="#D9B8FF" font-family="Helvetica" font-size="17" textLength="71">resource</text><path d="M117 46.789h225" style="stroke:#000d19;stroke-width:.5"/><text x="127" y="68.784" fill="#D9B8FF" font-family="sans-serif" font-size="14" font-weight="bold" textLength="29">age</text><text x="156" y="68.784" fill="#D9B8FF" font-family="sans-serif" font-size="14" textLength="66">: duration</text><text x="127" y="95.081" fill="#D9B8FF" font-family="sans-serif" font-size="14" font-weight="bold" textLength="43">atime</text><text x="170" y="95.081" fill="#D9B8FF" font-family="sans-serif" font-size="14" textLength="70">: datetime</text><text x="127" y="121.378" fill="#D9B8FF" font-family="sans-serif" font-size="14" font-weight="bold" textLength="43">ctime</text><text x="170" y="121.378" fill="#D9B8FF" font-family="sans-serif" font-size="14" textLength="70">: datetime</text><text x="127" y="147.675" fill="#D9B8FF" font-family="sans-serif" font-size="14" font-weight="bold" textLength="14">id</text><text x="141" y="147.675" fill="#D9B8FF" font-family="sans-serif" font-size="14" textLength="48">: string</text><text x="127" y="173.972" fill="#D9B8FF" font-family="sans-serif" font-size="14" font-weight="bold" textLength="33">kind</text><text x="160" y="173.972" fill="#D9B8FF" font-family="sans-serif" font-size="14" textLength="48">: string</text><text x="127" y="200.269" fill="#D9B8FF" font-family="sans-serif" font-size="14" font-weight="bold" textLength="90">last_access</text><text x="217" y="200.269" fill="#D9B8FF" font-family="sans-serif" font-size="14" textLength="66">: duration</text><text x="127" y="226.565" fill="#D9B8FF" font-family="sans-serif" font-size="14" font-weight="bold" textLength="90">last_update</text><text x="217" y="226.565" fill="#D9B8FF" font-family="sans-serif" font-size="14" textLength="66">: duration</text><text x="127" y="252.862" fill="#D9B8FF" font-family="sans-serif" font-size="14" font-weight="bold" textLength="48">mtime</text><text x="175" y="252.862" fill="#D9B8FF" font-family="sans-serif" font-size="14" textLength="70">: datetime</text><text x="127" y="279.159" fill="#D9B8FF" font-family="sans-serif" font-size="14" font-weight="bold" textLength="43">name</text><text x="170" y="279.159" fill="#D9B8FF" font-family="sans-serif" font-size="14" textLength="48">: string</text><text x="127" y="305.456" fill="#D9B8FF" font-family="sans-serif" font-size="14" font-weight="bold" textLength="34">tags</text><text x="161" y="305.456" fill="#D9B8FF" font-family="sans-serif" font-size="14" textLength="171">: dictionary[string, string]</text><path fill="none" d="M167.29 337.93c-13.61 38.18-26.68 74.83-35.86 100.58m29.59-102.84 13.31-16.49-.13 21.19-13.18-4.7zm-11.2 195.61c18.78 32.66 42.14 73.31 58.71 102.12m-65.25-98.45-3.9-20.83 16.03 13.85-12.13 6.98zm166.62-3.67c-18.95 32.66-42.53 73.31-59.24 102.12m53.68-105.49 16.09-13.79-3.98 20.81-12.11-7.02zm-12.07-189.98c13.74 38.18 26.92 74.83 36.18 100.58m-43.1-98.14-.18-21.19 13.36 16.45-13.18 4.74z" style="stroke:#ffaf37;stroke-width:2"/></svg>
